svgs/sharp-regular/bracket-curly.svg

<svg xmlns="http://www.w3.org/2000/svg" viewBox="0 0 256 512"><!--! Font Awesome Pro 6.6.0 by @fontawesome - https://fontawesome.com License - https://fontawesome.com/license (Commercial License) Copyright 2024 Fonticons, Inc. --><path d="M88 32L64 32l0 24 0 126.1L7 239l-7 7 0 19.9 7 7 57 57L64 456l0 24 24 0 112 0 24 0 0-48-24 0-88 0 0-112 0-9.9-7-7-47-47 47-47 7-7 0-9.9 0-112 88 0 24 0 0-48-24 0L88 32z"/></svg>

<svg xmlns="http://www.w3.org/2000/svg" viewBox="0 0 256 512"><!--! Font Awesome Pro 6.5.2 by @fontawesome - https://fontawesome.com License - https://fontawesome.com/license (Commercial License) Copyright 2024 Fonticons, Inc. --><path d="M88 32H64V56 182.1L7 239l-7 7v19.9l7 7 57 57V456v24H88 200h24V432H200 112V320v-9.9l-7-7-47-47 47-47 7-7V192 80h88 24V32H200 88z"/></svg>
